X:1285
L:1/4
Q:1/4=110
M:3/4
K:G
"^(Editorial suggestion)" G/A/ | B e e | d B G | A G F | G2 B | A A B | c B A | G d e | d2 B/c/ | 
 d B d |"^(a)" e/f/ !fermata!g g/f/ |"^(b)" e d B | A2 G | B d g | e/d/ B G | A G F | G2 || G/A/ | 
 B e e | d B G | A G F | G2 B | A A B | c B A | G d e | d2 B/c/ | d B d | 
"^(a) var." e/f/ !fermata!g f/e/ |"^(b) var." d B G | A2 G | B d g | e/d/ B G | A G F | G2 |]

